**kern	**kern	**kern	**kern	**harm
!bass	!tenor	!alto	!soprno	!
*Iorgan	*Iorgan	*Iorgan	*Iorgan	*
*clefF4	*clefF4	*clefG2	*clefG2	*
*M4/4	*M4/4	*M4/4	*M4/4	*M4/4
*met(C)	*met(C)	*met(C)	*met(C)	*met(C)
*MM60	*MM60	*MM60	*MM60	*MM60
*k[]	*k[]	*k[]	*k[]	*k[]
*a:	*a:	*a:	*a:	*a:
=1-
4A	4c	4e	4a	i
4#G	4B	4e	4b	Vb
4A	4A	4e	4cc	i
				i;
=	=	=	=	=2
4A	4A	4e	4cc	i
4G	4B	4g	4dd	V/III
4c	4c	4g	4ee	I/III
				I/III;
=	=	=	=	=3
8c	8c	4g	4ee	I/III
8B	8d	.	.	.
8A	8c		4ee	i
8G	8B	.	.	.
8#F	8A		4dd	V7b/-VII
8#G	8B	4b	.	viio
4A	8c	.	4cc	i
.	8e	8a	.	.
=	=	=	=	=4
4D	4f	4a	.4b	iv7
4E	8e	4#g	.	V
.	8d	.	8a	.
				I;
=	=	=	=	=5
8A	8#c	4a	4ee	I
8B	8d	.	.	.
8#c	8e	4a	4ee	Ib
8A	8#c	.	.	.
8d	4d	4a	4ff	iv
8cn	.	.	.	.
8-B	4d	4-b	4ff	-II
8A	.	.	.	.
=	=	=	=	=6
8G	4d	4-b	4ee	viiD7/VI
8E	.	.	.	.
4A	4#c	8a	4ee	V/IV
.	.	8g	.	.
4D	4d	8g	4ee	IV
.	.	8e	.	.
				IV;
*C:	*C:	*C:	*C:	*C:
=	=	=	=	=7
8G	8B	4g	4dd	V
8A	8c	.	.	.
8B	8d	4g	4dd	Vb
8G	8B	.	.	.
8c	4c	4g	4ee	I
8B	.	.	.	.
8A	4c	4a	4ee	vi
8G	.	.	.	.
=	=	=	=	=8
8F	4c	4a	4dd	ii7b
8D	.	.	.	.
4G	4B	8g	4dd	V
.	.	8f	.	.
4C	4c	8f	4cc	I
.	.	8d	.	.
				I;
*a:	*a:	*a:	*a:	*a:
=	=	=	=	=9
4F	4A	4f	4cc	VI
8E	4A	4f	4dd	iv
8D	.	.	.	.
8#G	4B	4e	4ee	Vb
8E	.	.	.	.
4A	4A	4e	8dd	I
.	.	.	8cc	.
=	=	=	=	=10
4#D	4A	4#f	4b	V7b/V
4E	4#G	8e	4b	V
.	.	8d	.	.
4A	4A	8d	4a	I
.	.	8B	.	.
				I;
===	===	===	===	====
*-	*-	*-	*-	*-
